X:1
T:RVW2/1/109 The London Prentice
T:RVW2/1/109 The London Prentice
T:Transcribed by Simon Furey and Lewis Jones Sung by Mrs Verrall, Sept. 6th 1908 [1 of 4]
C:Transcribed by Simon Furey and Lewis Jones
C:Sung by Mrs Verrall, Sept. 6th 1908 [1 of 4]
L:1/8
Q:1/4=120
M:4/4
K:Dmin
V:1 treble 
V:1
"^Editorial suggestion" D2 | D2 A2 D2 C2 |"^(a)" F3 G AB c2 | A3 G F2"^(b)" E2 | D6 :| %5
 !fermata!A"^(c)"=B | c2 c2 c2 d2 | A3 G F2 F2 | G2 A2 B2 c2 | A6 G2 | A2 D2 D2 C2 | F3 G AB c2 | %12
 A3 G F2"^(d)" E2 | D6 |: D2 | D2 A2 D2 C2 |"^(a) var." F3 G A=B c2 | A3 G F2"^(b) var." EC | D6 :| %19
"^(c) var." G=B | c2 c2 c2 d2 | A3 G F2 F2 | G2 A2 B2 c2 | A6 G2 | A2 D2 D2 C2 | F3 G AB c2 | %26
 A3 G F2"^(d) var." EC | D6 |] %28

